!!!COM: Scarlatti, Domenico
!!!CDT: 1685///-1757///
!!!OTL: Sonata in C Major, K.235, L.154
!!!SCT: K. 235
!!!SCT: L. 154
!!!OMD: Allegro
**kern	**kern	**dynam
*staff2	*staff1	*staff1/2
*Icemba	*Icemba	*Icemba
*>[A,A,B,B]	*>[A,A,B,B]	*>[A,A,B,B]
*>norep[A,B]	*>norep[A,B]	*>norep[A,B]
*>A	*>A	*>A
*clefF4	*clefG2	*clefG2
*k[f#]	*k[f#]	*k[f#]
*G:	*G:	*G:
*M3/8	*M3/8	*M3/8
*MM150	*MM150	*MM150
=1-	=1-	=1-
8G\L	(4.gg\	p
8A\	.	.
8B\J	.	.
=2	=2	=2
8c\L	4.ee\	.
8d\	.	.
8e\J	.	.
=3	=3	=3
8d\L	4.cc\	.
8e\	.	.
8f#\J	.	.
=4	=4	=4
8g\L	4.b\)	.
8d\	.	.
8G\J	.	.
=5	=5	=5
8G\L	(4.dd\	.
8A\	.	.
8B\J	.	.
=6	=6	=6
8c\L	4.ee\	.
8d\	.	.
8e\J	.	.
=7	=7	=7
8d\L	4.a/	.
8e\	.	.
8f#\J	.	.
=8	=8	=8
8g\L	4g/)	.
8d\	.	.
8G\J	8r	.
=9	=9	=9
(8G\L	4.gg\	.
8A\	.	.
8B\J	.	.
=10	=10	=10
8c\L	4.ee\	.
8d\	.	.
8e\J	.	.
=11	=11	=11
8d\L	4.cc\	.
8e\	.	.
8f#\J	.	.
=12	=12	=12
8g\L	4.b\	.
8d\	.	.
8G\J)	.	.
=13	=13	=13
(8G\L	4.dd\	.
8A\	.	.
8B\J	.	.
=14	=14	=14
8c\L	4.ee\	.
8d\	.	.
8e\J	.	.
=15	=15	=15
8d\L	4.a/	.
8e\	.	.
8f#\J	.	.
=16	=16	=16
8g\L	4g/	.
8d\	.	.
8G\J)	8r	.
=17	=17	=17
4.r	(16d/LL	<
.	16e/	(
.	16f#/	(
.	16g/	(
.	16a/	(
.	16b/JJ	(
=18	=18	=18
4.r	16cc\LL	(
.	16dd\	(
.	16ee\	(
.	16ff#\	(
.	16gg\	(
.	16aa\JJ	[
=19	=19	=19
*	*^	*
8G\ 8d\L	8r	16bb\LL	f
.	.	16dd\	.
8F#\ 8d\	8r	16cc\	.
.	.	16aa\)	.
8G\ 8d\J	8gg/	(16gg\	.
.	.	16b\JJ	.
=20	=20	=20	=20
4.D\	8gg/L	4.a\	>
.	16ff#/L	.	)
.	16ee/J	.	]
.	8dd/J)	.	p
*	*v	*v	*
=21	=21	=21
(16D\LL	4.r	.
16E\	.	.
16F#\	.	.
16G\	.	.
16A\	.	.
16B\JJ	.	.
*clefG2	*	*
=22	=22	=22
16c/LL	4.r	.
16d/	.	.
16e/	.	.
16f#/	.	.
16g/	.	.
16a/JJ	.	.
=23	=23	=23
8b'/L)	16r	.
.	16gg'\LL	f
8a'/	16r	.
.	16ff#'\	.
8g'/J	16r	.
.	16gg'\JJ	.
=24	=24	=24
4.d/	4.aa\	.
*clefF4	*	*
=25	=25	=25
(4.F#\ 4.d\	16aa\LL	.
.	16ddd\	.
.	16ff#\	.
.	16aa\	.
.	16dd\	.
.	16ff#\JJ	.
=26	=26	=26
4.G\) 4.d\	16b/LL	.
.	16dd/	.
.	16g/	.
.	16b/	.
.	16e/	.
.	16g/JJ	.
=27	=27	=27
4.AA\ 4.A\	16c#/LL	.
.	16b/	.
.	16a/	.
.	16g/	.
.	16f#/	.
.	16e/JJ	.
=28	=28	=28
4.DD/ 4.D/	8.f#/L	.
.	16e/k	.
.	8f#/J	.
=29	=29	=29
4.F#\ 4.d\	(16aa\LL	p
.	16ddd\	.
.	16ff#\	.
.	16aa\	.
.	16dd\	.
.	16ff#\JJ	.
=30	=30	=30
4.G\ 4.d\	16b/LL	.
.	16dd/	.
.	16g/	.
.	16b/	.
.	16e/	.
.	16g/JJ	.
=31	=31	=31
4.AA\ 4.A\	16c#/LL	.
.	16b/	.
.	16a/	.
.	16g/	.
.	16f#/	.
.	16e/JJ	.
=32	=32	=32
4.DD/ 4.D/	4.d/)	.
*clefG2	*	*
=33	=33	=33
(16a/LL	8r	.
16dd/	.	.
16f#/	8r	.
16a/	.	.
16d/	[8aa\	f
16f#/JJ	.	.
*clefF4	*	*
=34	=34	=34
16B\LL	4aa\]	.
16d\	.	.
16G\	.	.
16B\	.	.
16E\	[8bb\	.
16G\JJ	.	.
=35	=35	=35
16C#\LL	8bb\]	.
16B\	.	.
16A\	[4bb\	.
16G\	.	.
16F#\	.	.
16E\JJ	.	.
=36	=36	=36
4.F#\)	16bb\LL]	.
.	16bb\	.
.	16aa\	.
.	16gg\J	.
.	8aa'\J	p
*clefG2	*	*
=37	=37	=37
(16a/LL	8r	.
16dd/	.	.
16f#/	8r	.
16a/	.	.
16d/	[8aa\	.
16f#/JJ	.	.
*clefF4	*	*
=38	=38	=38
16B\LL	4aa\]	.
16d\	.	.
16G\	.	.
16B\JJ	.	.
8GG'/)	[8bb\	f
=39	=39	=39
4.AA/	16bb\LL]	.
.	(16bb\	.
.	16aa\	.
.	16gg\	.
.	16ff#\	.
.	16ee\JJ	.
=40	=40	=40
4.DD/ 4.D/	4.dd\)	.
=41	=41	=41
4.DD/ 4.D/	(16ddd\LL	ff
.	16aa\	.
.	16ffn\	.
.	16dd\	.
.	16a\	.
.	16fn\JJ)	.
=42	=42	=42
16d\LL	8r	.
16A\	.	.
16Fn\	8r	.
16D\	.	.
16AA\	([8ffn\	.
16DD\JJ	.	.
=43	=43	=43
4.BB-/	8ffn\L]	.
.	16ee\L	.
.	16dd\	.
.	16cc#\	.
.	16dd\JJ)	.
=44	=44	=44
4.AA/	4.ee\	.
=45	=45	=45
4.DD/ 4.D/	(16ddd\LL	.
.	16aa\	.
.	16ffn\	.
.	16dd\	.
.	16a\	.
.	16fn\JJ)	.
=46	=46	=46
16d\LL	8r	.
16A\	.	.
16Fn\	8r	.
16D\	.	.
16AA\	([8ffn\	.
16DD\JJ	.	.
=47	=47	=47
4.BB-/	8ffn\L]	.
.	16ee\L	.
.	16dd\	.
.	16cc#\	.
.	16dd\JJ)	.
=48	=48	=48
4.AA/	4.ee\	.
=49	=49	=49
4.Fn\ 4.d\	(16ddd\LL	f
.	16ffn\	.
.	16ee\	.
.	16ccc\	.
.	16bb-\	.
.	16dd\JJ	.
=50	=50	=50
4.G\ 4.d\	16cc\LL	.
.	16aa\	.
.	16gg\	.
.	16b-\	.
.	16a\	.
.	16ffn\JJ	.
=51	=51	=51
4.AA\ 4.A\	16ee\LL	.
.	16g\	.
.	16fn\	.
.	16dd\	.
.	16e\	.
.	16cc#\JJ	.
=52	=52	=52
4.DD/ 4.D/	4.dd\)	.
=53	=53	=53
4.Fn\ 4.d\	(16ddd\LL	p
.	16ffn\	.
.	16ee\	.
.	16ccc\	.
.	16bb-\	.
.	16dd\JJ	.
=54	=54	=54
4.G\ 4.d\	16cc\LL	.
.	16aa\	.
.	16gg\	.
.	16b-\	.
.	16a\	.
.	16ffn\JJ	.
=55	=55	=55
4.AA\ 4.A\	16ee/LL	.
.	16g/	.
.	16fn/	.
.	16dd/	.
.	16e/	.
.	16cc#/JJ	.
=56	=56	=56
4DD/ 4D/	8dd'\)	.
.	4aa\	.
8r	.	.
=57	=57	=57
(16AA/LL	8r	.
16BB/	.	.
16C#/	4aa\	.
16D/	.	.
16E/	.	.
16F#/JJ	.	.
=58	=58	=58
16G\LL	8r	.
16A\	.	.
16B\	4aa\	.
16c#\	.	.
16d\	.	.
16e\JJ	.	.
=59	=59	=59
8f#'\L)	16r	.
.	16aa'\LL	f
8e'\	16r	.
.	16gg'\	.
8d'\J	16r	.
.	16ff#'\JJ	.
=60	=60	=60
4.A\	4.ee\	.
=61	=61	=61
(16AA/LL	8r	.
16BB/	.	.
16C#/	4aa\	p
16D/	.	.
16E/	.	.
16F#/JJ	.	.
=62	=62	=62
16G\LL	8r	.
16A\	.	.
16B\	4aa\	.
16c#\	.	.
16d\	.	.
16e\JJ	.	.
=63	=63	=63
8f#'\L)	16r	.
.	16aa'\LL	f
8e'\	16r	.
.	16gg'\	.
8d'\J	16r	.
.	16ff#'\JJ	.
=64	=64	=64
4.A\	4.ee\	.
=65	=65	=65
4.AA\ 4.E\ 4.A\	(16ccc#\LL	.
.	16ee\	.
.	16ff#\	.
.	16ddd\	.
.	16ee\	.
.	16ccc#\JJ	.
=66	=66	=66
4.D\ 4.F#\ 4.A\	16ddd\LL	.
.	16ff#\	.
.	16ee\	.
.	16ccc#\)	.
.	(16ccc#\	.
.	16ddd\JJ)	.
=67	=67	=67
4.AA\ 4.E\ 4.A\	(16cc#/LL	.
.	16e/	.
.	16f#/	.
.	16dd/	.
.	16e/	.
.	16cc#/JJ	.
=68	=68	=68
4.D\ 4.F#\ 4.A\	16dd/LL	.
.	16f#/	.
.	16e/	.
.	16cc#/)	.
.	16cc#/	.
.	16dd/JJ	.
=69	=69	=69
(16c#\LL	8ee'\L	.
16E\	.	.
16D\	8ff#'\	.
16d\	.	.
16E\	8gg'\J	.
16c#\JJ	.	.
=70	=70	=70
16F#\LL	8aa\L	.
16d\	.	.
16E\	8gg\	.
16c#\	.	.
16D\	8ff#'\J	.
16d\JJ)	.	.
=71	=71	=71
(8G\L	(16ee\LL	.
.	16gg\	.
8A\)	16ff#\	.
.	16ee\	.
8AA'\J	16dd\	.
.	16cc#\JJ)	.
=72	=72	=72
8D\L	(16ff#\LL	p
.	16a\	<
8E\	16g\	(
.	16ee\	(
8F#\J	16dd\	(
.	16f#\JJ	(
=73	=73	=73
8G\L	16g\LL	(
.	16ee\	(
8A\	16dd\	(
.	16f#\	(
8AA'\J	16e\	(
.	16cc#\JJ)	(
=74	=74	=74
8D\L	(16ff#\LL	(
.	16a\	(
8E\	16g\	(
.	16ee\	(
8F#\J	16dd\	(
.	16f#\JJ	(
=75	=75	=75
8G\L	16g\LL	(
.	16ee\	(
8A\	16dd\	(
.	16f#\	(
8AA'\J	16e\	(
.	16cc#\JJ	[
=76	=76	=76
4DD/ 4D/	4dd\)	f
8r	8r	.
=77:|!|:	=77:|!|:	=77:|!|:
*>B	*>B	*>B
*M6/8	*M6/8	*M6/8
*MM99	*MM99	*MM99
4.DD/ 4.D/	4dd\	p
.	8dd\	.
*clefG2	*	*
4d/ 4g/ 4b/	(8.dd\L	.
.	16ccn\k	.
8d/ 8g/ 8b/	8dd\J)	.
=78	=78	=78
4d/ (4g/ 4a/	(8.cc\L	.
.	16b\k	.
8d/ 8f#/) 8a/	8cc\J)	.
4d/ 4g/	(8.b\L	.
.	16a\k	.
8d/ 8g/	8b\J)	.
=79	=79	=79
4d/ (4f#/	(4cc\	.
8d/ 8g/)	8b\)	.
4d/ 4f#/ 4b/	(8.dd\L	<
.	16cc#\k	(
8d/ 8f#/ 8b/	8dd\J)	[
=80	=80	=80
4c#/ 4g/ 4a/	(4ff#\	>
8c#/ 8g/ 8a/	8ee\)	]
4d/ 4f#/ 4b/	(8.dd\L	<
.	16cc#\k	(
8d/ 8f#/ 8b/	8dd\J)	(
=81	=81	=81
4c#/ 4g/ 4a/	(4ff#\	(
8c#/ 8g/ 8a/	8ee\)	(
4B/ 4e/ 4g/ 4b/	(8.dd\L	(
.	16cc#\k	(
8B/ 8e/ 8g/ 8b/	8dd\J)	(
=82	=82	=82
4A#/ 4e/ 4f#/	(4ff#\	(
8A#/ 8e/ 8f#/	8ee\)	(
4B/ 4e/ 4g/ 4b/	(8.dd\L	(
.	16cc#\k	(
8B/ 8e/ 8g/ 8b/	8dd\J)	(
=83	=83	=83
4A#/ 4e/ 4f#/	(4ff#\	(
8A#/ 8e/ 8f#/	8ee\)	[
4B-/ 4d/ 4g/	(8.dd\L	<
.	16cc#\k	(
8B-/ 8d/ 8g/	8dd\J)	(
=84	=84	=84
(4An/ 4fn/ 4a/	(4ffn\	(
8A/ 8f/ 8a/	8ee\)	(
4B-/) 4d/ 4g/	(8.dd\L	(
.	16cc#\k	(
8B-/ 8d/ 8g/	8dd\J)	(
=85	=85	=85
4A/ 4fn/ 4a/	(4ffn\	(
8A/ 8f/ 8a/	8ee\)	(
4A/ 4d/ 4f/ 4a/	(8.dd\L	(
.	16cc#\k	(
8A/ 8d/ 8f/ 8a/	8dd\J)	(
=86	=86	=86
4G#/ 4d/ 4e/	(4ffn\	(
8G#/ 8d/	8ee\)	(
4A/ 4d/ 4fn/	(8.dd\L	(
.	16cc#\k	(
8A/ 8d/ 8f/	8dd\J)	(
=87	=87	=87
4G#/ 4d/ 4e/	(4ffn\	(
8G#/ 8d/ 8e/	8ee\)	(
4Gn/ 4c/ 4d/ 4fn/	(8.dd\L	(
.	16ccn\k	(
8G/ 8c/ 8d/ 8f/	8dd\J)	(
=88	=88	=88
4G/ 4c/ 4e/	(4ffn\	(
8G/ 8c/ 8e/	8ee\)	(
4G/ 4c/ 4d/ 4fn/	(8.dd\L	(
.	16ccn\k	(
8G/ 8c/ 8d/ 8f/	8dd\J)	(
*clefF4	*	*
=89	=89	=89
*	*^	*
4.C/	4.r	(4ffn\	(
.	.	8ee\)	[
4C\ 4A\	4aa/	(8.ff#\L	f
.	.	16ee\k	.
8C\ 8A\	8aa/	8ff#\J)	.
*	*v	*v	*
=90	=90	=90
4BB\ 4G\	8.gg\ (8.bb\L	.
.	16ff#\ 16aa\k	.
8BB\ 8G\	8gg\ 8bb\J)	.
4AA/ 4F#/	8.aa\ (8.ccc\L	.
.	16gg\ 16bb\k	.
8AA/ 8F#/	8aa\ 8ccc\J)	.
=91	=91	=91
*	*^	*
4GG\ 4G\	4.r	4bb\ (4ddd\	.
8GG\ 8G\	.	8gg\ 8bb\)	.
4BB\ 4G\	(8.bb/L	4gg\	p
.	16ccc/k	.	.
8BB\ 8G\	[8ddd/J	8dd\	.
*	*v	*v	*
=92	=92	=92
4C/	8.ee\ 8.ddd\L]	.
.	16ff#\ 16ccc\k	.
8C/	8gg\ 8bb\J)	.
4E\	8.gg\ (8.bb\L	.
.	16ff#\ 16aa\k	.
8E\	8ee\ 8gg\J)	.
=93	=93	=93
4.D\	4.ff#\ 4.aa\	.
8r	(4gg\	<
4BB/	.	(
.	8dd\ 8bb\)	(
=94	=94	=94
8r	4b\ (4gg\	(
4C/	.	(
.	8dd\ 8bb\)	(
8r	4b\ (4gg\	(
4D\	.	(
.	8dd\ 8bb\)	(
=95	=95	=95
8r	4b\ (4gg\	(
4E\	.	(
.	(8dd\ 8bb\)	[
8r	4b\ 4gg\	f
4BB/	.	.
.	8dd\ 8ddd\	.
=96	=96	=96
4C/	8.ee\) 8.ddd\L	.
.	16ff#\ 16ccc\k	.
8E\	8gg\ 8bb\J	.
4D\	8.gg\ (8.bb\L	.
.	16aa\ 16ccc\k	.
8DD/	8ff#\ 8aa\J)	.
=97	=97	=97
(4.GG\ 4.G\	4.gg\	.
4.BB/	(4gg\	p
.	8dd\ 8bb\)	<
=98	=98	=98
4.C/	4b\ 4gg\	(
.	8dd\ 8bb\	(
4.D\	4b\ 4gg\	(
.	8dd\ 8bb\	(
=99	=99	=99
4.E\	4b\ 4gg\	(
.	8dd\ 8bb\	[
4.BB/	4b\ 4gg\	f
.	8dd\ [8ddd\	.
=100	=100	=100
4C/	8ee\ 8ddd\L]	.
.	16ccc\L	.
.	16bb\	.
8E\	16aa\	.
.	16gg\JJ	.
4D\	4.aa\	.
8DD/)	.	.
=101	=101	=101
*M3/8	*M3/8	*M3/8
*MM150	*MM150	*MM150
4.GG\ 4.G\	(16bb\LL	f
.	16ddd\	.
.	16gg\	.
.	16bb\	.
.	16ee\	.
.	16gg\JJ	.
=102	=102	=102
4.C\ 4.G\	16cc\LL	.
.	16ee\	.
.	16a\	.
.	16cc\	.
.	16f#\	.
.	16a\JJ	.
=103	=103	=103
4.D\	16d\LL)	.
.	(16ee\	.
.	16dd\	.
.	16cc\	.
.	16b\	.
.	16a\JJ	.
=104	=104	=104
4.GG/	8.b\L	.
.	16a\k	.
.	8b\J)	.
=105	=105	=105
4.BB\ 4.G\	(16bb\LL	p
.	16ddd\	.
.	16gg\	.
.	16bb\	.
.	16ee\	.
.	16gg\JJ	.
=106	=106	=106
4.C\ 4.G\	16cc\LL	.
.	16ee\	.
.	16a\	.
.	16cc\	.
.	16f#\	.
.	16a\JJ	.
=107	=107	=107
4.DD/ 4.D/	16d'\LL)	.
.	(16ee\	.
.	16dd\	.
.	16cc\	.
.	16b\	.
.	16a\JJ	.
=108	=108	=108
4.GG/	4.g/)	f
=109	=109	=109
16d\LL	8r	.
16g\	.	.
16B\	8r	.
16d\	.	.
16G\	([8gg\	.
16B\JJ	.	.
=110	=110	=110
4.CC/	16gg\LL]	.
.	16ff#\	.
.	16ee\	.
.	16dd\	.
.	16cc\	.
.	16b\JJ	.
=111	=111	=111
4.DD/	16a/LL	.
.	16g/	.
.	16f#/	.
.	16e/	.
.	16d/	.
.	16cc/JJ	.
=112	=112	=112
4.GG/	16b\LL	.
.	16g\	.
.	16b\	.
.	16dd\J	.
.	8gg'\J)	p
=113	=113	=113
16d\LL	8r	.
16g\	.	.
16B\	8r	.
16d\	.	.
16G\	([8gg\	.
16B\JJ	.	.
=114	=114	=114
4.CC/	16gg\LL]	.
.	16ff#\	.
.	16ee\	.
.	16dd\	.
.	16cc\	.
.	16b\JJ	.
=115	=115	=115
4.DD/	16a/LL	.
.	16g/	.
.	16f#/	.
.	16e/	.
.	16d/	.
.	16f#/JJ	.
=116	=116	=116
4.GG/	16g\LL	<
.	16a\	(
.	16b\	(
.	16cc\	(
.	16dd\	(
.	16ee\JJ	[
=117	=117	=117
4.DD/ 4.D/	(16ff#\LL)	f
.	16f#\	.
.	16g\	.
.	16gg\	.
.	16a\	.
.	16ff#\JJ	.
=118	=118	=118
4.GG\ 4.G\	16gg\LL	.
.	16g\	.
.	16f#\	.
.	16ff#\)	.
.	(16ff#\	.
.	16gg\JJ)	.
=119	=119	=119
4.DD/ 4.D/	(16f#/LL	.
.	16F#/	.
.	16G/	.
.	16g/	.
.	16A/	.
.	16f#/JJ	.
=120	=120	=120
4.GG/	16g/LL	.
.	16G/	.
.	16F#/	.
.	16f#/)	.
.	(16f#/	.
.	16g/JJ	.
=121	=121	=121
(16F#\LL	8a'/L)	.
16AA\	.	.
16GG\	8b'/	.
16G\	.	.
16AA\	8cc'/J	.
16F#\JJ	.	.
=122	=122	=122
16BB\LL	8dd\L	.
16G\	.	.
16AA\	8cc\	.
16F#\	.	.
16GG\	8b'\J	.
16G\JJ)	.	.
=123	=123	=123
(8C/L	(16a/LL	.
.	16cc/	.
8D/)	16b/	.
.	16a/	.
8DD'/J	16g/	.
.	16f#/JJ)	.
=124	=124	=124
8G\L	(16bb\LL	.
.	16dd\	.
8A\	16cc\	.
.	16aa\	.
8B\J	16gg\	.
.	16b\JJ	.
=125	=125	=125
8c\L	16cc\LL	.
.	16aa\	.
8d\	16gg\	.
.	16b\	.
8D'\J	16a\	.
.	16ff#\JJ)	.
=126	=126	=126
8GG/L	(16bb\LL	.
.	16dd\	.
8AA/	16cc\	.
.	16aa\	.
8BB/J	16gg\	.
.	16b\JJ	.
=127	=127	=127
8C/L	16cc\LL	.
.	16aa\	.
8D/	16gg\	.
.	16b\	.
8DD'/J	16a\	.
.	16ff#\JJ	.
=128	=128	=128
4.GG/ 4.G/	4.g\ 4.gg\)	.
==:|!	==:|!	==:|!
*-	*-	*-
!!!ENC: Craig Stuart Sapp
!!!END: 2005/07/19
